dealnox/img/sprite/icon-telegram.svg

<svg width="42" height="42" viewBox="0 0 42 42" fill="none" xmlns="http://www.w3.org/2000/svg">
<g clip-path="url(#clip0_666_620)">
<path fill-rule="evenodd" clip-rule="evenodd" d="M42 21C42 32.598 32.598 42 21 42C9.40202 42 0 32.598 0 21C0 9.40202 9.40202 0 21 0C32.598 0 42 9.40202 42 21ZM21.7525 15.5031C19.71 16.3527 15.6277 18.1111 9.50581 20.7783C8.51171 21.1736 7.99095 21.5604 7.94354 21.9385C7.86343 22.5776 8.66375 22.8293 9.75358 23.172C9.90182 23.2186 10.0554 23.2669 10.2129 23.3181C11.2851 23.6666 12.7274 24.0744 13.4773 24.0906C14.1574 24.1052 14.9165 23.8248 15.7546 23.2493C21.4745 19.3883 24.4272 17.4367 24.6125 17.3946C24.7433 17.3649 24.9245 17.3276 25.0473 17.4367C25.1701 17.5459 25.1581 17.7526 25.1451 17.808C25.0658 18.146 21.9242 21.0667 20.2984 22.5781C19.7916 23.0493 19.4321 23.3835 19.3586 23.4599C19.194 23.6309 19.0262 23.7926 18.865 23.9481C17.8688 24.9083 17.1218 25.6284 18.9063 26.8044C19.7639 27.3695 20.4501 27.8368 21.1347 28.303C21.8823 28.8121 22.628 29.32 23.5928 29.9524C23.8386 30.1135 24.0734 30.2809 24.302 30.4439C25.1721 31.0642 25.9538 31.6215 26.9195 31.5326C27.4807 31.481 28.0603 30.9533 28.3547 29.3796C29.0504 25.6605 30.4178 17.6023 30.7339 14.2817C30.7616 13.9908 30.7267 13.6184 30.6988 13.455C30.6708 13.2916 30.6123 13.0587 30.3999 12.8863C30.1483 12.6821 29.7599 12.6391 29.5861 12.6421C28.7963 12.6561 27.5845 13.0774 21.7525 15.5031Z" fill="#968E8E"/>
</g>
<defs>
<clipPath id="clip0_666_620">
<rect width="42" height="42" fill="white"/>
</clipPath>
</defs>
</svg>

<svg width="42" height="42" fill="none" xmlns="http://www.w3.org/2000/svg"><g clip-path="url(#clip0_666_620)"><path fill-rule="evenodd" clip-rule="evenodd" d="M42 21c0 11.598-9.402 21-21 21S0 32.598 0 21 9.402 0 21 0s21 9.402 21 21zm-20.247-5.497c-2.043.85-6.125 2.608-12.247 5.275-.994.396-1.515.782-1.562 1.16-.08.64.72.891 1.81 1.234l.459.146c1.072.349 2.514.756 3.264.773.68.014 1.44-.266 2.278-.842 5.72-3.86 8.672-5.812 8.857-5.854.131-.03.313-.067.435.042.123.109.111.316.098.371-.08.338-3.22 3.259-4.847 4.77-.506.471-.866.806-.94.882-.164.17-.332.333-.493.488-.996.96-1.743 1.68.041 2.856.858.566 1.544 1.033 2.229 1.499.747.51 1.493 1.017 2.458 1.65.246.16.48.328.709.49.87.621 1.652 1.178 2.617 1.09.562-.052 1.141-.58 1.436-2.153.695-3.72 2.063-11.778 2.379-15.098a3.708 3.708 0 0 0-.035-.827c-.028-.163-.087-.396-.3-.569-.25-.204-.64-.247-.813-.244-.79.014-2.002.435-7.833 2.861z" fill="#968E8E"/></g><defs><clipPath id="clip0_666_620"><path fill="#fff" d="M0 0h42v42H0z"/></clipPath></defs></svg>
